X:1
T:Norsk Nationalsang
T:Sønner af Norge
T:Christian Blom
T:Henrik Anker Bjerregaard
%%score [ 1 2 3 4 ]
L:1/8
Q:1/4=70
M:4/4
K:F
V:1 treble nm="Sopran"
V:2 treble nm="Alt"
V:3 treble-8 nm="Tenor"
V:4 bass nm="Bass"
V:1
!f! F2 C3/2 C/ D2 C3/2 C/ | (D>E) F3/2 G/ A2 F2 | G2 A3/2 A/ G2 A3/2 A/ | B2 A3/2 A/ G2 z2 | %4
w: Søn- ner af Nor- ge, det|æld- * gam- le Ri- ge,|Sjun- ger til Har- pens den|fest- li- ge Klang!|
 F2 C3/2 C/ D2 C3/2 C/ | (D>E) F3/2 G/ A2 F2 | G2 F3/2 F/ E2 F3/2 F/ | E2 D3/2 D/ C2 z2 | %8
w: Man- digt og høi- tids- fuldt|To- * nen lad sti- ge,|Fæ- dre- ne- lan- det ind-|vi- es vor Sang.|
!p! G4 A2 A2 | (B3 A) G2 z2 |!p!!<(! A4 B2!<)! A2 | (G3 E) C2 z2 |!f! c2 G3/2 G/ A2 G3/2 F/ | %13
w: Fæ- dre- ne-|min- * der|her- ligt op-|rin- * der,|Hver gang vi næv- ne vor|
 E2 D3/2 D/ C2 z2 |!mf!!<(! F2 E3/2 E/ F2 G3/2 G/ | A2 G3/2 G/ A2!<)! B2 | %16
w: Fæ- dre- ne- stavn.|Svul- men- de Hjer- ter og|glø- den- de Kin- der|
!f! c2 A3/2 F/ (DB) A3/2!ff! G/ | F2 E3/2 E/ F2 z2 |] %18
w: Hyl- de det elsk- * te, det|hel- li- ge Navn.|
V:2
!f! C2 A,3/2 A,/ B,2 A,3/2 A,/ | (B,>C) D3/2 E/ F2 F2 | E2 F3/2 F/ E2 F3/2 F/ | G2 F3/2 F/ E2 z2 | %4
w: Søn- ner af Nor- ge, det|æld- * gam- le Ri- ge,|Sjun- ger til Har- pens den|fest- li- ge Klang!|
 C2 A,3/2 A,/ B,2 A,3/2 A,/ | (B,>C) C3/2 C/ C2 C2 | C2 =B,3/2 B,/ C2 D3/2 D/ | %7
w: Man- digt og høi- tids- fuldt|To- * nen lad sti- ge,|Fæ- dre- ne- lan- det ind-|
 C2 =B,3/2 B,/ C2 z2 |!p! E2!<(! D2 ^F2!<)! F2 | (G3 E) E2 z2 |!p!!<(! F4 E2!<)! F2 | E4 C2 z2 | %12
w: vi- es vor Sang.|Fæ- * dre- ne-|min- * der|her- ligt op-|rin- der,|
!f! C2 E3/2 E/ F2 C3/2 D/ | C2 =B,3/2 B,/ C2 z2 |!mf!!<(! C2 C3/2 C/ C2 E3/2 E/ | %15
w: Hver- gang vi næv- ne vor|Fæ- dre- ne- stavn.|Svul- men- de Hjer- ter og|
 F2 E3/2 E/ F2!<)! F2 |!f! F2 F3/2 C/ D2 D3/2!ff! D/ | C2 C3/2 C/ C2 z2 |] %18
w: glø- den- de Kin- der|Hyl- de det elsk- te, det|hel- li- ge Navn.|
V:3
!f! A2 F3/2 F/ B2 F3/2 F/ | (B>c) d3/2 d/ d2 A2 | c2 c3/2 c/ c2 c3/2 c/ | c2 c3/2 c/ c2 z2 | %4
w: Søn- ner af Nor- ge, det|æld- * gam- le Ri- ge,|Sjun- ger til Har- pens den|fest- li- ge Klang!|
 A2 F3/2 F/ B2 F3/2 F/ | F2 F3/2 E/ F2 A2 | G2 G3/2 G/ G2 A3/2 A/ | G2 F3/2 F/ E2 z2 | %8
w: Man- digt og høi- tids- fuldt|To- nen lad sti- ge,|Fæ- dre- ne- lan- det ind-|vi- es vor Sang.|
!p! (c2!<(! d2) d2!<)! d2 | (d3 c) c2 z2 |!p!!<(! c4 c2 (c!<)!d) | (e3 c) c2 z2 | %12
w: Fæ- * dre- ne-|min- * der|her- ligt op- *|rin- * der,|
!f! G2 c3/2 c/ c2 G3/2 A/ | G2 F3/2 F/ E2 z2 |!mf! A2 G3/2 G/ A2 c3/2 c/ | c2 c3/2 c/ c2 B2 | %16
w: Hver gang vi næv- ne vor|Fæ- dre- ne- stavn|Svul- men- de Hjer- ter og|glø- den- de Kin- der|
!f! A2 c3/2 A/ (Bd) c3/2!ff! B/ | A2 G3/2 G/ A2 z2 |] %18
w: Hyl- de det elsk- * te, det|hel- li- ge Navn.|
V:4
!f! F,2 F,3/2 F,/ F,2 F,3/2 F,/ | B,2 A,3/2 G,/ F,2 F,2 | C,2 F,3/2 F,/ C,2 F,3/2 F,/ | %3
w: Søn- ner af Nor- ge, det|æld- gam- le Ri- ge,|Sjun- ger til Har- pens den|
 (C,E,) F,3/2 A,/ C2 z2 | F,2 F,3/2 F,/ F,2 F,3/2 F,/ | B,,2 A,,3/2 C,/ F,2 F,2 | %6
w: fest- * li- ge Klang!|man- digt og høi- tids- fuldt|To- nen lad sti- ge,|
 E,2 D,3/2 D,/ C,2 F,3/2 F,/ | G,2 G,3/2 G,/ C,2 z2 |!p! (C2!<(! B,2) A,2!<)! D,2 | %9
w: Fæ- dre- ne- lan- det ind-|vi- es vor Sang.|Fæ- * dre- ne-|
 (G,3 C,) C,2 z2 |!p!!<(! F,4 G,2 (A,!<)!=B,) | C4 C2 z2 |!f! E,2 C,3/2 C,/ F,2 E,3/2 F,/ | %13
w: min- * der|her- ligt op- *|rin- der,|Hver gang vi næv- ne vor|
 G,2 G,3/2 G,/ C,2 z2 |!mf! (F,!<(!A,) G,3/2 B,/ (A,C) G,3/2 C/ | %15
w: Fæ- dre- ne- stavn|Svul- * men- de Hjer- * ter og|
 (F,A,) C3/2 C,/ (F,_E,) (D,!<)!_D,) |!f! (C,A,,) F,3/2 A,/ (B,G,) A,3/2!ff! B,/ | %17
w: glø- * den- de Kin- * der _|Hyl- * de det elsk- * te, det|
 C2 C,3/2 C,/ F,2 z2 |] %18
w: hel- li- ge Navn.|

